!!!id: bhatk3194a
!!!vol: 3
!!!page: 194
!!!antara: Honlaajana 
!!!raag: bihag
!!!taal: teental
!!!tempo: madhyalaya
**kern
!!data: // >mP  -  S'  -/  S'  S'  S'  S'/  G'  %S'  -  S'/  %P  -  S'  N/
==1
f#q
2g
2cc
=
4cc
4cc
4cc
4cc
=
4ee
2ccS
4cc
=
2gS
4cc
4b
!!data: // P  -  N  -/  S'  -  G'  R'/  G'  M'  G'  R'/  S'  R'  S'  S'/
==2
2g
2b
=
2cc
4ee
4dd
=
4ee
4ff
4ee
4dd
=
4cc
4dd
4cc
4cc
!!data: // >mP  -  S'  N/  %P  -  >GM  >RG/  >mP  m  G  M/  [G  R  S]  S/
==3
f#q
2g
4cc
4b
=
2gS
eq
4f
dq
4e
=
f#q
4g
4f#
4e
4f
=
4eH
4d
4ch
4c
!!data: // >N,P,  P,  N,  N,/  S  -  >MG  M/  %P  -  >PG  M/  -  [G  R  S]/
==4
Bq
4G
4G
4B
4B
=
2c
fq
4e
4f
=
2gS
gq
4e
[4f
=
4f]
4eH
4d
4ch
!!data: // >PG  M  P  N/  S'  -  %P  -/  S'  S'  G'R'  S'N/  DP  MG  RS  S/
==5
gq
4e
4f
4g
4b
=
2cc
2gS
=
4cc
4cc
8ee
8dd
8cc
8b
=
8a
8g
8f
8e
8d
8c
4c
==
*-
